X: 5654
T: Buttons And Bows, The
R: jig
M: 6/8
K: Dmajor
|:B|Add Bdd|Ddd BAF|Add cde|fdB B2d|
Add Bdd|Ddd BAF|Add cde|gec d2:|
|:B|ABd efa|b2b afa|bBc def|efe edB|
gfe fga|bgb afd|B/c/dB ABd|1 edc d2:|2 BAF D2||

